X:2038
T:Bodmin Riding March
R:March
C:Trad.
O:England
Z:Paul Hardy's Session Tunebook 2015 (see www.paulhardy.net). Creative Commons cc by-nc-sa licenced.
M:2/2
L:1/8
Q:1/2=70
K:D
A/B/c|"D"d2 d2 d2 d2|dcde dede|f2 f2 f2 f2|fefg fgfg|
a2 a2 a2 ba|"G"g2g2 g2 ag|"D"f2 ed "Em"g2 f2|"A"e6||
cd|"A"e2 e2 "G"e2 f2|"A"edcB A2 d/e/f/g/|"D"a2 a2 a2 b2|
agfe d2ag|f2 e2 d2 ag|(3fgf (3efe d2 ag|"A"fgab f2 e2|"D"d4|]

